Newaita/actions/scalable/align-horizontal-left-out.svg

<?xml version="1.0" encoding="UTF-8"?>
<svg xmlns="http://www.w3.org/2000/svg" xmlns:xlink="http://www.w3.org/1999/xlink" width="512pt" height="512pt" viewBox="0 0 512 512" version="1.1">
<g id="surface1">
<path style=" stroke:none;fill-rule:nonzero;fill:rgb(25.882354%,25.882354%,25.882354%);fill-opacity:1;" d="M 269.902344 51.628906 L 269.902344 443.25 C 269.902344 452.019531 262.792969 459.128906 254.023438 459.128906 C 245.257812 459.128906 238.148438 452.019531 238.148438 443.25 L 238.148438 51.628906 C 238.148438 42.863281 245.257812 35.753906 254.023438 35.753906 C 262.792969 35.753906 269.902344 42.863281 269.902344 51.628906 Z M 269.902344 51.628906 "/>
<path style=" stroke:none;fill-rule:nonzero;fill:rgb(25.882354%,25.882354%,25.882354%);fill-opacity:0.988235;" d="M 296.363281 67.507812 C 296.363281 49.914062 310.523438 35.753906 328.113281 35.753906 L 455.128906 35.753906 C 472.71875 35.753906 486.878906 49.914062 486.878906 67.507812 L 486.878906 173.351562 C 486.878906 190.941406 472.71875 205.101562 455.128906 205.101562 L 328.113281 205.101562 C 310.523438 205.101562 296.363281 190.941406 296.363281 173.351562 Z M 328.113281 78.089844 L 328.113281 162.765625 C 328.113281 168.628906 332.835938 173.351562 338.699219 173.351562 L 444.542969 173.351562 C 450.40625 173.351562 455.125 168.628906 455.125 162.765625 L 455.125 78.089844 C 455.125 72.226562 450.40625 67.507812 444.542969 67.507812 L 338.699219 67.507812 C 332.835938 67.507812 328.113281 72.226562 328.113281 78.089844 Z M 328.113281 78.089844 "/>
<path style=" stroke:none;fill-rule:nonzero;fill:rgb(25.882354%,25.882354%,25.882354%);fill-opacity:0.988235;" d="M 296.363281 300.363281 C 296.363281 282.769531 310.523438 268.609375 328.113281 268.609375 L 433.957031 268.609375 C 451.550781 268.609375 465.710938 282.769531 465.710938 300.363281 L 465.710938 406.207031 C 465.710938 423.796875 451.550781 437.957031 433.957031 437.957031 L 328.113281 437.957031 C 310.523438 437.957031 296.363281 423.796875 296.363281 406.207031 Z M 328.113281 310.945312 L 328.113281 395.621094 C 328.113281 401.484375 332.835938 406.207031 338.699219 406.207031 L 423.375 406.207031 C 429.238281 406.207031 433.957031 401.484375 433.957031 395.621094 L 433.957031 310.945312 C 433.957031 305.082031 429.238281 300.363281 423.375 300.363281 L 338.699219 300.363281 C 332.835938 300.363281 328.113281 305.082031 328.113281 310.945312 Z M 328.113281 310.945312 "/>
<path style=" stroke:none;fill-rule:nonzero;fill:rgb(100%,43.921569%,26.274511%);fill-opacity:0.988235;" d="M 42.335938 289.777344 C 42.335938 272.1875 56.5 258.023438 74.089844 258.023438 L 179.933594 258.023438 C 197.523438 258.023438 211.6875 272.1875 211.6875 289.777344 L 211.6875 416.789062 C 211.6875 434.382812 197.523438 448.542969 179.933594 448.542969 L 74.089844 448.542969 C 56.5 448.542969 42.335938 434.382812 42.335938 416.789062 Z M 74.089844 300.363281 L 74.089844 406.207031 C 74.089844 412.070312 78.8125 416.789062 84.675781 416.789062 L 169.347656 416.789062 C 175.214844 416.789062 179.933594 412.070312 179.933594 406.207031 L 179.933594 300.363281 C 179.933594 294.5 175.214844 289.777344 169.347656 289.777344 L 84.675781 289.777344 C 78.8125 289.777344 74.089844 294.5 74.089844 300.363281 Z M 74.089844 300.363281 "/>
</g>
</svg>

<svg xmlns="http://www.w3.org/2000/svg" width="512pt" height="512pt" viewBox="0 0 512 512"><path d="M269.902 51.629V443.25c0 8.77-7.109 15.879-15.879 15.879-8.765 0-15.875-7.11-15.875-15.879V51.629c0-8.766 7.11-15.875 15.875-15.875 8.77 0 15.88 7.11 15.88 15.875zm0 0" fill="#424242"/><path d="M296.363 67.508c0-17.594 14.16-31.754 31.75-31.754H455.13c17.59 0 31.75 14.16 31.75 31.754v105.844c0 17.59-14.16 31.75-31.75 31.75H328.113c-17.59 0-31.75-14.16-31.75-31.75zm31.75 10.582v84.676a10.564 10.564 0 0 0 10.586 10.586h105.844a10.561 10.561 0 0 0 10.582-10.586V78.09a10.558 10.558 0 0 0-10.582-10.582H338.699a10.561 10.561 0 0 0-10.586 10.582zm0 0M296.363 300.363c0-17.593 14.16-31.754 31.75-31.754h105.844a31.682 31.682 0 0 1 31.754 31.754v105.844c0 17.59-14.16 31.75-31.754 31.75H328.113c-17.59 0-31.75-14.16-31.75-31.75zm31.75 10.582v84.676a10.564 10.564 0 0 0 10.586 10.586h84.676a10.561 10.561 0 0 0 10.582-10.586v-84.676a10.558 10.558 0 0 0-10.582-10.582h-84.676a10.561 10.561 0 0 0-10.586 10.582zm0 0" fill="#424242" fill-opacity=".988"/><path d="M42.336 289.777c0-17.59 14.164-31.754 31.754-31.754h105.844c17.59 0 31.754 14.164 31.754 31.754V416.79c0 17.594-14.165 31.754-31.754 31.754H74.09c-17.59 0-31.754-14.16-31.754-31.754zm31.754 10.586v105.844a10.561 10.561 0 0 0 10.586 10.582h84.672a10.559 10.559 0 0 0 10.586-10.582V300.363a10.562 10.562 0 0 0-10.586-10.586H84.676a10.564 10.564 0 0 0-10.586 10.586zm0 0" fill="#ff7043" fill-opacity=".988"/></svg>
